!!!!SEGMENT: pl-sa--288-a-vii-48--002_lechleitner-ferdinand-simon--litania-de-b-v-mariae-sancta-maria.krn
!!!cenid: 17xx:437
!!!COM: Lechleitner, Ferdinand Simon
!!!COM-rismID: pe30001903
!!!CDT: ~1700-~1800
!!!CNT:
!!!OPR: Litania de B.V. Mariae
!!!OTL: Sancta Maria
!!!OMV: 002
!!!PDT: 1741
!!!AGN: Sacred; Mass
!!!SMS-siglum: PL-SA
!!!SMS-shelfmark: 288/A VII 48
!!!SMS-shelfwork: 001-002 M
!!!NIFC-rismSourceID: 1001039077
!!!NIFC-islandoraID:
!!!URL-pdf-islandora:
!!!URL-scan: https://bc.bdsandomierz.pl/dlibra/publication/1784/edition/1752/content @EN{Scan in the Sandomierz Diocese Digital Library} @PL{Skany w portalu Cyfrowa Biblioteka Diecezjalna w Sandomierzu}
!!!ONB-nifc: UWAGA: części Litanii: Kyrie, Sancta Maria, Virgo prudentissima, Speculum iustitiae, Salus infirmorum, Regina angelorum, Agnus Dei
!!!AIN: 1 alto 3 empty 1 tenor 1 viola 2 violn 1 vox
!!!key:
**kern	**fba	**kern	**kern	**kern	**kern	**kern	**text	**kern	**text	**kern	**kern
*part9	*	*part8	*part7	*part6	*part5	*part4	*part4	*part3	*part3	*part2	*part1
*group3	*	*group3	*group3	*group2	*group2	*group2	*	*group2	*	*group1	*group1
*staff9	*	*staff8	*staff7	*staff6	*staff5	*staff4	*staff4	*staff3	*staff3	*staff2	*staff1
*Iviola	*	*Ivioln	*Ivioln	*Iempty	*Itenor	*Ialto	*	*Ivox	*	*Iempty	*Iempty
*I"Viola Baſso	*	*I"Violino 2do	*I"Violino 1mo	*I"Baſso	*I"Tenore	*I"Alto	*	*I"Canto	*	*I"Clarino 2do Ex. B.	*I"Clarino 1mo Ex. B.
*I'Vla B	*	*I'vl II	*I'vl I	*I'B	*I'T	*I'A	*	*I'C	*	*I'cl II	*I'cl I
*clefF4	*	*clefG2	*clefG2	*clefF4	*clefC4	*clefC3	*	*clefC1	*	*clefG2	*clefG2
*ITrd0c0	*	*	*	*	*	*	*	*	*	*ITrd1c2	*ITrd1c2
*k[b-e-]	*	*k[b-e-]	*k[b-e-]	*k[b-e-]	*k[b-e-]	*k[b-e-]	*	*k[b-e-]	*	*k[b-e-]	*k[b-e-]
*g:	*	*g:	*g:	*g:	*g:	*g:	*	*g:	*	*g:	*g:
*M3/4	*	*M3/4	*M3/4	*M3/4	*M3/4	*M3/4	*	*M3/4	*	*M3/4	*M3/4
=1	=1	=1	=1	=1	=1	=1	=1	=1	=1	=1	=1
!LO:TX:a:t=Adagio	!	!	!LO:TX:a:t=Adagio	!	!	!	!	!LO:TX:a:t=P:problem=bemole b- ee-	!	!	!
!LO:TX:b:t=Sancta Maria.	!	!LO:TX:b:t=S Maria	!LO:TX:b:t=S.Maria	!LO:TX:a:t=S.Maria\n Tacet	!LO:TX:a:t=Sancta Maria\n Tacet Can.	!	!	!	!	!LO:TX:a:t=S.Maria\n Tacet	!LO:TX:a:t=Sancta Maria\n Tacet
!LO:TX:a:t=P:problem=brak nazwy instrumentu na karcie głosu	!	!	!	!	!	!LO:N:vis=00	!	!LO:N:vis=00	!	!	!
2GG/	.	2b-/	4r	2.ryy	2.ryy	0.r	.	0.r	.	2.ryy	2.ryy
.	.	.	8gg\L	.	.	.	.	.	.	.	.
.	.	.	8ff#X\J	.	.	.	.	.	.	.	.
!LO:TX:a:t=P:all\right:problem	!	!	!	!	!	!	!	!	!	!	!
4G\	.	4b-/	8gg\L	.	.	.	.	.	.	.	.
.	.	.	8dd\J	.	.	.	.	.	.	.	.
=2	=2	=2	=2	=2	=2	=2	=2	=2	=2	=2	=2
*2\right	*	*	*	*	*	*	*	*	*	*	*
!	!	!LO:TX:a:t=adagio	!	!	!	!	!	!	!	!	!
2F#X\	6 5	4cc\	8aa\L	2.ryy	2.ryy	.	.	.	.	2.ryy	2.ryy
.	.	.	8ff#X\J	.	.	.	.	.	.	.	.
.	.	8a\L	4cc\	.	.	.	.	.	.	.	.
.	.	8cc\	.	.	.	.	.	.	.	.	.
4D\	7	8b-\	16r	.	.	.	.	.	.	.	.
.	.	.	16ee-\LL	.	.	.	.	.	.	.	.
.	.	8a\J	16dd\	.	.	.	.	.	.	.	.
.	.	.	16cc\JJ	.	.	.	.	.	.	.	.
=3	=3	=3	=3	=3	=3	=3	=3	=3	=3	=3	=3
4G\	.	4g/	4b-/	2.ryy	2.ryy	.	.	.	.	2.ryy	2.ryy
4A\	.	4cc/	4cc\	.	.	.	.	.	.	.	.
4B-\	.	8b-/L	4dd\	.	.	.	.	.	.	.	.
.	.	8a/J	.	.	.	.	.	.	.	.	.
!LO:LB:g=original	!	!	!LO:LB:g=original	!	!	!	!	!	!	!	!
=4	=4	=4	=4	=4	=4	=4	=4	=4	=4	=4	=4
!	!	!LO:TX:a:t=P:problem=mixed beam	!	!	!	!	!	!	!	!	!
2c\	7	8g/L	8ee-\L	2.ryy	2.ryy	.	.	.	.	2.ryy	2.ryy
.	.	8f/	8dd\	.	.	.	.	.	.	.	.
.	.	8g/	8ee-\	.	.	.	.	.	.	.	.
.	.	8ee-\	8gg\	.	.	.	.	.	.	.	.
4F\	7	8dd\	8ff\	.	.	.	.	.	.	.	.
.	.	8cc\J	8ee-\J	.	.	.	.	.	.	.	.
=5	=5	=5	=5	=5	=5	=5	=5	=5	=5	=5	=5
!	!	!	!	!	!	!LO:N:vis=00	!	!LO:N:vis=00	!	!	!
2B-\	7	8b-\L	8dd\L	2.ryy	2.ryy	0.r	.	0.r	.	2.ryy	2.ryy
.	.	8a\	8cc\	.	.	.	.	.	.	.	.
.	.	8b-\	8dd\	.	.	.	.	.	.	.	.
.	.	8dd\	8ff\	.	.	.	.	.	.	.	.
4E-\	6 5	8cc\	8ee-\	.	.	.	.	.	.	.	.
.	.	8b-\J	8dd\J	.	.	.	.	.	.	.	.
=6	=6	=6	=6	=6	=6	=6	=6	=6	=6	=6	=6
!LO:TX:a:t=P:problem=mixed beam	!	!	!	!	!	!	!	!	!	!	!
8F\L	.	8a\L	4cc\	2.ryy	2.ryy	.	.	.	.	2.ryy	2.ryy
8AA/	6	8cc\	.	.	.	.	.	.	.	.	.
8AA/	.	8cc\	4r	.	.	.	.	.	.	.	.
8AA/	.	8cc\	.	.	.	.	.	.	.	.	.
8FF/	.	8a\	4r	.	.	.	.	.	.	.	.
8AA/J	.	8cc\J	.	.	.	.	.	.	.	.	.
!	!	!LO:LB:g=original	!	!	!	!	!	!	!	!	!
=7	=7	=7	=7	=7	=7	=7	=7	=7	=7	=7	=7
!	!	!LO:TX:a:t=P:problem=mixed beam	!	!	!	!	!	!	!	!	!
4BB-/	.	8f/L	8r	2.ryy	2.ryy	.	.	.	.	2.ryy	2.ryy
.	.	8dd\	8ff\L	.	.	.	.	.	.	.	.
4r	.	8dd\	8ff\	.	.	.	.	.	.	.	.
.	.	8dd\	8ff\	.	.	.	.	.	.	.	.
4D/	6	8b-\	8dd\	.	.	.	.	.	.	.	.
.	.	8dd\J	8ff\J	.	.	.	.	.	.	.	.
=8	=8	=8	=8	=8	=8	=8	=8	=8	=8	=8	=8
!	!	!LO:TX:a:t=P:problem=mixed beam	!	!	!	!	!	!	!	!	!
2C/	-	8ee-\L	8gg\L	2.ryy	2.ryy	.	.	.	.	2.ryy	2.ryy
.	.	8ee-\	8gg\	.	.	.	.	.	.	.	.
.	.	8cc\	8ee-\	.	.	.	.	.	.	.	.
.	.	8ee-\	8gg\	.	.	.	.	.	.	.	.
4C/	.	8g/	8cc\	.	.	.	.	.	.	.	.
.	.	8ee-\J	8gg\J	.	.	.	.	.	.	.	.
=9	=9	=9	=9	=9	=9	=9	=9	=9	=9	=9	=9
!	!	!LO:TX:a:t=P:problem=mixed beam	!	!	!	!	!	!	!	!	!
!	!	!	!	!	!	!LO:N:vis=00	!	!LO:N:vis=0	!	!	!
2D\	#	8a/L	8ff#X\L	2.ryy	2.ryy	0.r	.	1.r	.	2.ryy	2.ryy
.	.	8ff#X\	8aa\	.	.	.	.	.	.	.	.
.	.	8ff#\	8aa\	.	.	.	.	.	.	.	.
.	.	8ff#\	8aa\	.	.	.	.	.	.	.	.
4F#X\	6	8a/	8dd\	.	.	.	.	.	.	.	.
.	.	8dd/J	8aa\J	.	.	.	.	.	.	.	.
=10	=10	=10	=10	=10	=10	=10	=10	=10	=10	=10	=10
4G\	-	4dd\	4gg\	2.ryy	2.ryy	.	.	.	.	2.ryy	2.ryy
8GG/L	.	8b-\L	8gg\L	.	.	.	.	.	.	.	.
8AA/J	6\	8cc\	8ff#X\J	.	.	.	.	.	.	.	.
4BB-/	6	8dd\	4gg\	.	.	.	.	.	.	.	.
.	.	8g\J	.	.	.	.	.	.	.	.	.
=11	=11	=11	=11	=11	=11	=11	=11	=11	=11	=11	=11
4C/	6 -3	4e-X/	4a/	2.ryy	2.ryy	.	.	2.r	.	2.ryy	2.ryy
4D/	.	4d/	4.a/	.	.	.	.	.	.	.	.
4DD/	5 4	4f#X/	.	.	.	.	.	.	.	.	.
.	x #	.	8g/	.	.	.	.	.	.	.	.
!	!	!	!LO:LB:g=original	!	!	!	!	!	!	!	!
=12	=12	=12	=12	=12	=12	=12	=12	=12	=12	=12	=12
!LO:TX:a:t=P:problem=mixed beam	!	!	!	!	!	!	!	!	!	!	!
8GG/L	-	4g/	4g/	2.ryy	2.ryy	.	.	4r	.	2.ryy	2.ryy
8G\	.	.	.	.	.	.	.	.	.	.	.
!	!	!	!	!	!	!	!	!LO:TX:a:t=P:all\right:problem	!	!	!
8G\	.	4r	4r	.	.	.	.	8dd\L	San-	.	.
8G\	.	.	.	.	.	.	.	8b-\J	.	.	.
8G\	.	4r	4r	.	.	.	.	8g\L	-cta	.	.
8G\J	.	.	.	.	.	.	.	8dd\J	.	.	.
=13	=13	=13	=13	=13	=13	=13	=13	=13	=13	=13	=13
!	!	!	!LO:TX:a:t=1	!	!	!LO:N:vis=00	!	!	!	!	!
8A\L	7_	2.r	2.r	2.ryy	2.ryy	0.r	.	4cc\	San-	2.ryy	2.ryy
8A\	.	.	.	.	.	.	.	.	.	.	.
8A\	.	.	.	.	.	.	.	8cc\L	.	.	.
8A\	.	.	.	.	.	.	.	8a\J	-cta	.	.
!	!	!	!	!	!	!	!	!LO:TX:a:t=P:problem=mixed beam	!	!	!
8A\	.	.	.	.	.	.	.	8f#X/L	Ma-	.	.
8A\J	X	.	.	.	.	.	.	8cc\J	.	.	.
=14	=14	=14	=14	=14	=14	=14	=14	=14	=14	=14	=14
!LO:TX:a:t=P:problem=mixed beam	!	!	!	!	!	!	!	!	!	!	!
8B-\L	5	4r	4r	2.ryy	2.ryy	.	.	4b-\	-ri-	2.ryy	2.ryy
8BB-/	.	.	.	.	.	.	.	.	.	.	.
8BB-/	.	8r	8r	.	.	.	.	4g/	-a	.	.
8BB-/	.	8dd\L	8gg\L	.	.	.	.	.	.	.	.
8BB-/	.	8dd\	8gg\	.	.	.	.	4r	.	.	.
8BB-/J	.	8dd\J	8gg\J	.	.	.	.	.	.	.	.
!LO:LB:g=original	!	!	!	!	!	!	!	!LO:LB:g=original	!	!	!
=15	=15	=15	=15	=15	=15	=15	=15	=15	=15	=15	=15
!	!	!	!	!	!	!	!	!LO:N:vis=0	!	!	!
8C/L	5_	8ee-\L	8gg\L	2.ryy	2.ryy	.	.	1.r	.	2.ryy	2.ryy
8C/	.	8ee-\	8gg\	.	.	.	.	.	.	.	.
8C/	.	8ee-\	8gg\	.	.	.	.	.	.	.	.
8C/	.	8ee-\	8gg\	.	.	.	.	.	.	.	.
8C/	6	8ee-\	8aa\	.	.	.	.	.	.	.	.
8C/J	.	8ee-\J	8aa\J	.	.	.	.	.	.	.	.
=16	=16	=16	=16	=16	=16	=16	=16	=16	=16	=16	=16
8D/L	5	4a/	4ff#X\	2.ryy	2.ryy	.	.	.	.	2.ryy	2.ryy
8C/	.	.	.	.	.	.	.	.	.	.	.
!	!	!LO:TX:a:t=P:problem=mixed beam	!	!	!	!	!	!	!	!	!
8BB-/	6	8b-\L	8gg\L	.	.	.	.	.	.	.	.
8AA/J	6\	8cc\	8ff#X\J	.	.	.	.	.	.	.	.
4GG/	-	8dd\	4gg\	.	.	.	.	.	.	.	.
.	.	8d/J	.	.	.	.	.	.	.	.	.
!	!	!LO:LB:g=original	!	!	!	!	!	!	!	!	!
=17	=17	=17	=17	=17	=17	=17	=17	=17	=17	=17	=17
!	!	!	!	!	!	!LO:N:vis=00	!	!	!	!	!
4C/	.	4e-X/	4a/	2.ryy	2.ryy	0.r	.	2.r	.	2.ryy	2.ryy
4D/	.	4d/	4.at/	.	.	.	.	.	.	.	.
4DD/	5 4	4f#X/	.	.	.	.	.	.	.	.	.
.	x #	.	8g/	.	.	.	.	.	.	.	.
=18	=18	=18	=18	=18	=18	=18	=18	=18	=18	=18	=18
!LO:TX:a:t=P:problem=mixed beam	!	!	!	!	!	!	!	!	!	!	!
8GG/L	-	4g/	4g/	2.ryy	2.ryy	.	.	4r	.	2.ryy	2.ryy
8G\	.	.	.	.	.	.	.	.	.	.	.
8G\	.	4r	4r	.	.	.	.	(8dd\L	San-	.	.
8G\	.	.	.	.	.	.	.	8b-\J)	.	.	.
8G\	.	4r	4r	.	.	.	.	(8g\L	-cta	.	.
8G\J	.	.	.	.	.	.	.	8dd\J)	.	.	.
=19	=19	=19	=19	=19	=19	=19	=19	=19	=19	=19	=19
!	!	!LO:TX:a:t=7	!LO:TX:a:t=7	!	!	!	!	!	!	!	!
!	!	!LO:N:vis=00	!LO:N:vis=00	!	!	!	!	!	!	!	!
8A\L	7_	0.r	0.r	2.ryy	2.ryy	.	.	4cc\	San-	2.ryy	2.ryy
8A\	.	.	.	.	.	.	.	.	.	.	.
8A\	.	.	.	.	.	.	.	(8cc\L	-cta	.	.
8A\	.	.	.	.	.	.	.	8a\J)	.	.	.
8A\	6\	.	.	.	.	.	.	8f#X/	De-	.	.
8A\J	.	.	.	.	.	.	.	8cc\	-i	.	.
=20	=20	=20	=20	=20	=20	=20	=20	=20	=20	=20	=20
16B-\LL	6\	.	.	2.ryy	2.ryy	.	.	8b-\	ge-	2.ryy	2.ryy
16A\	6\	.	.	.	.	.	.	.	.	.	.
16B-\	6\	.	.	.	.	.	.	8a\	-ni-	.	.
16A\JJ	6\	.	.	.	.	.	.	.	.	.	.
!LO:TX:a:t=P:problem=mixed beam	!	!	!	!	!	!	!	!	!	!	!
8G\L	-	.	.	.	.	.	.	8g\	-trix	.	.
8G\	.	.	.	.	.	.	.	(16dd\LL	o-	.	.
.	.	.	.	.	.	.	.	16cc\JJ)	.	.	.
8GG/	.	.	.	.	.	.	.	8b-\L	.	.	.
8G\J	.	.	.	.	.	.	.	16cc\L	.	.	.
.	.	.	.	.	.	.	.	16dd\JJ	.	.	.
=21	=21	=21	=21	=21	=21	=21	=21	=21	=21	=21	=21
!	!	!	!	!	!	!LO:N:vis=00	!	!	!	!	!
4C/	-	.	.	2.ryy	2.ryy	0.r	.	16ee-\LL	.	2.ryy	2.ryy
.	.	.	.	.	.	.	.	16dd\	.	.	.
.	.	.	.	.	.	.	.	16ee-\	.	.	.
.	.	.	.	.	.	.	.	16dd\JJ	.	.	.
8r	.	.	.	.	.	.	.	16cc\LL	.	.	.
.	.	.	.	.	.	.	.	16dd\	.	.	.
8C/L	.	.	.	.	.	.	.	16ee-\	.	.	.
.	.	.	.	.	.	.	.	16dd\JJ	.	.	.
8E-/	6	.	.	.	.	.	.	16cc\LL	.	.	.
.	.	.	.	.	.	.	.	16dd\	.	.	.
8C/J	.	.	.	.	.	.	.	16cc\	.	.	.
.	.	.	.	.	.	.	.	16b-\JJ	.	.	.
=22	=22	=22	=22	=22	=22	=22	=22	=22	=22	=22	=22
16F\LL	.	.	.	2.ryy	2.ryy	.	.	4a\	-ra	2.ryy	2.ryy
16G\	.	.	.	.	.	.	.	.	.	.	.
16A\	.	.	.	.	.	.	.	.	.	.	.
16G\JJ	.	.	.	.	.	.	.	.	.	.	.
!LO:TX:a:t=P:problem=mixed beam	!	!	!	!	!	!	!	!	!	!	!
8F\L	.	.	.	.	.	.	.	8r	.	.	.
8F\	.	.	.	.	.	.	.	(16cc\LL	San-	.	.
.	.	.	.	.	.	.	.	16b-\JJ)	.	.	.
8FF/	.	.	.	.	.	.	.	(8a\L	-cta	.	.
8F\J	.	.	.	.	.	.	.	16b-\L	.	.	.
.	.	.	.	.	.	.	.	16cc\JJ)	.	.	.
!	!	!	!	!	!	!	!	!LO:LB:g=original	!	!	!
=23	=23	=23	=23	=23	=23	=23	=23	=23	=23	=23	=23
!	!	!LO:N:vis=0	!LO:N:vis=0	!	!	!	!	!	!	!	!
4BB-/	.	1.r	1.r	2.ryy	2.ryy	.	.	(16dd\LL	Vir-	2ryy	2ryy
.	.	.	.	.	.	.	.	16cc\JJ)	.	.	.
.	.	.	.	.	.	.	.	(16dd\LL	-go	.	.
.	.	.	.	.	.	.	.	16cc\JJ)	.	.	.
8r	.	.	.	.	.	.	.	16b-\LL	Vir-	.	.
.	.	.	.	.	.	.	.	16cc\	.	.	.
8BB-/L	.	.	.	.	.	.	.	16dd\	.	.	.
.	.	.	.	.	.	.	.	16cc\JJ	.	.	.
8D/	.	.	.	.	.	.	.	16b-\LL	.	4ryy	4ryy
.	.	.	.	.	.	.	.	16cc\	.	.	.
8BB-/J	.	.	.	.	.	.	.	(16b-\	-gi-	.	.
.	.	.	.	.	.	.	.	16a\JJ)	.	.	.
!LO:LB:g=original	!	!	!	!	!	!	!	!	!	!	!
=24	=24	=24	=24	=24	=24	=24	=24	=24	=24	=24	=24
16E-\LL	.	.	.	2.ryy	2.ryy	.	.	4g/	-num	2.ryy	2.ryy
16F\	.	.	.	.	.	.	.	.	.	.	.
16G\	.	.	.	.	.	.	.	.	.	.	.
16F\JJ	.	.	.	.	.	.	.	.	.	.	.
8E-\L	.	.	.	.	.	.	.	8r	.	.	.
8C\J	.	.	.	.	.	.	.	(16cc\LL	O-	.	.
.	.	.	.	.	.	.	.	16b-\JJ)	.	.	.
8F\L	.	.	.	.	.	.	.	8a\L	.	.	.
8E-\J	.	.	.	.	.	.	.	16b-\L	.	.	.
.	.	.	.	.	.	.	.	16cc\JJ	.	.	.
=25	=25	=25	=25	=25	=25	=25	=25	=25	=25	=25	=25
!LO:TX:a:t=P:problem=mixed beam	!	!	!	!	!	!LO:N:vis=00	!	!	!	!	!
8D\L	6	2.r	2.r	2.ryy	2.ryy	0.r	.	8dd\	-ra	2.ryy	2.ryy
8E-\	6	.	.	.	.	.	.	8cc\	pro	.	.
8F\	6 4	.	.	.	.	.	.	4dd\	.	.	.
8E-\	.	.	.	.	.	.	.	.	.	.	.
8F\	5 3	.	.	.	.	.	.	8.cc\L	no-	.	.
8FF/J	.	.	.	.	.	.	.	.	.	.	.
.	.	.	.	.	.	.	.	16b-\Jk	.	.	.
!	!	!	!LO:PB:g=original	!	!	!	!	!	!	!	!
=26	=26	=26	=26	=26	=26	=26	=26	=26	=26	=26	=26
4BB-/	.	4r	4r	2.ryy	2.ryy	.	.	4b-\	-bis	2.ryy	2.ryy
4BB-/	.	4d/	(8b-/L	.	.	.	.	4r	.	.	.
.	.	.	8a/J)	.	.	.	.	.	.	.	.
4B-\	.	4d/	8b-/L	.	.	.	.	4r	.	.	.
.	.	.	8f/J	.	.	.	.	.	.	.	.
=27	=27	=27	=27	=27	=27	=27	=27	=27	=27	=27	=27
!	!	!	!	!	!	!	!	!LO:N:vis=00	!	!	!
2A\	6 5	4e-X/	8cc/L	2.ryy	2.ryy	.	.	0.r	.	2.ryy	2.ryy
.	.	.	8a/J	.	.	.	.	.	.	.	.
!	!	!LO:TX:a:t=P:problem=mixed beam	!	!	!	!	!	!	!	!	!
.	.	8c/L	4e-X/	.	.	.	.	.	.	.	.
.	.	8ee-\	.	.	.	.	.	.	.	.	.
4G\	7	8dd\	16r	.	.	.	.	.	.	.	.
.	.	.	16gg\LL	.	.	.	.	.	.	.	.
.	.	8cc\J	16ff\	.	.	.	.	.	.	.	.
.	.	.	16ee-\JJ	.	.	.	.	.	.	.	.
=28	=28	=28	=28	=28	=28	=28	=28	=28	=28	=28	=28
4BB-/	.	8b-\L	8dd\L	2.ryy	2.ryy	.	.	.	.	2.ryy	2.ryy
.	.	8dd\	8ff\	.	.	.	.	.	.	.	.
4B-\	.	8dd\	8ff\	.	.	.	.	.	.	.	.
.	.	8cc\	8ee-\	.	.	.	.	.	.	.	.
4E-\	6 5	8cc\	8ee-\	.	.	.	.	.	.	.	.
.	.	8b-\J	8dd\J	.	.	.	.	.	.	.	.
=29	=29	=29	=29	=29	=29	=29	=29	=29	=29	=29	=29
!	!	!	!	!	!	!LO:N:vis=0	!	!	!	!	!
4F\	.	4a/	16cc\LL	2.ryy	2.ryy	1.r	.	.	.	2.ryy	2.ryy
.	.	.	16a\	.	.	.	.	.	.	.	.
.	.	.	16f\	.	.	.	.	.	.	.	.
.	.	.	16a\JJ	.	.	.	.	.	.	.	.
4r	.	8r	16cc\LL	.	.	.	.	.	.	.	.
.	.	.	16a\	.	.	.	.	.	.	.	.
.	.	8a/	16f\	.	.	.	.	.	.	.	.
.	.	.	16a\JJ	.	.	.	.	.	.	.	.
4AA/	6 5	16a/LL	16cc\LL	.	.	.	.	.	.	.	.
.	.	16g/	16ee-\	.	.	.	.	.	.	.	.
.	.	16f/	16dd\	.	.	.	.	.	.	.	.
.	.	16e-/JJ	16cc\JJ	.	.	.	.	.	.	.	.
=30	=30	=30	=30	=30	=30	=30	=30	=30	=30	=30	=30
!	!	!LO:TX:a:t=P:problem=mixed beam	!	!	!	!	!	!	!	!	!
4BB-/	.	8d/L	16dd\LL	2.ryy	2.ryy	.	.	.	.	2.ryy	2.ryy
.	.	.	16ee-\	.	.	.	.	.	.	.	.
.	.	16b-\L	16dd\	.	.	.	.	.	.	.	.
.	.	16cc\JJ	16ee-\JJ	.	.	.	.	.	.	.	.
!	!	!LO:TX:a:t=P:problem=mixed beam	!	!	!	!	!	!	!	!	!
4F\	.	8dd\L	8ff\L	.	.	.	.	.	.	.	.
.	.	8f/	8b-\J	.	.	.	.	.	.	.	.
4FF/	6 4	8c/	8f/L	.	.	.	.	.	.	.	.
.	5 3	8f/J	8a/J	.	.	.	.	.	.	.	.
=31	=31	=31	=31	=31	=31	=31	=31	=31	=31	=31	=31
!	!	!	!	!	!	!LO:TX:a:t=P:all\right:problem	!	!	!	!	!
4BB-/	.	4d/	4b-\	2.ryy	2.ryy	(8B-\L	Ma-	2.r	.	2.ryy	2.ryy
.	.	.	.	.	.	8c\	.	.	.	.	.
4B-\	.	4r	4r	.	.	8d\	.	.	.	.	.
.	.	.	.	.	.	8e-\J)	.	.	.	.	.
4A\	6	4r	4r	.	.	(8f\L	-ter	.	.	.	.
!	!	!	!	!	!	!	!	!LO:TX:b:t=Verte	!	!	!
.	5	.	.	.	.	8e-\J)	.	.	.	.	.
!	!	!	!	!	!	!	!	!LO:PB:g=original	!	!	!
=32	=32	=32	=32	=32	=32	=32	=32	=32	=32	=32	=32
!	!	!LO:N:vis=00	!LO:N:vis=00	!	!	!	!	!	!	!	!
4B-\	.	0.r	0.r	2.ryy	2.ryy	(8.d\L	Chri-	(8b-\L	Ma-	2.ryy	2.ryy
.	.	.	.	.	.	.	.	8cc\J)	.	.	.
.	.	.	.	.	.	16c\Jk)	.	.	.	.	.
4BB-/	.	.	.	.	.	4B-/	-sti	8dd\	-ter	.	.
.	.	.	.	.	.	.	.	8ee-\	Di-	.	.
4AA/	6	.	.	.	.	4r	.	8ff\	-vi-	.	.
.	.	.	.	.	.	.	.	8ee-\	-nae	.	.
=33	=33	=33	=33	=33	=33	=33	=33	=33	=33	=33	=33
4BB-/	.	.	.	2.ryy	2.ryy	(8B-\L	Ma-	8.dd\	gra-	2.ryy	2.ryy
.	.	.	.	.	.	8c\	.	.	.	.	.
.	.	.	.	.	.	.	.	16cc\	-tiae	.	.
8BB-/L	.	.	.	.	.	8d\	.	4b-\	.	.	.
8C/	.	.	.	.	.	8e-\J)	.	.	.	.	.
8D/	.	.	.	.	.	(8f\L	-ter	4r	.	.	.
8C/J	.	.	.	.	.	8e-\J)	.	.	.	.	.
!LO:PB:g=original	!	!	!	!	!	!	!	!	!	!	!
=34	=34	=34	=34	=34	=34	=34	=34	=34	=34	=34	=34
4BB-/	.	.	.	2.ryy	2.ryy	(8d\L	Ma-	(8dd\L	Ma-	2.ryy	2.ryy
.	.	.	.	.	.	8e-\J)	.	8cc\J)	.	.	.
8r	.	.	.	.	.	(8f\L	-ter	(8dd\L	-ter	.	.
8D/L	.	.	.	.	.	8d\J)	.	8b-\J)	.	.	.
!	!	!	!	!	!	!LO:LB:g=original	!	!	!	!	!
8C/	.	.	.	.	.	(8e-\L	Pu-	(8cc\L	pu-	.	.
8BB-/J	.	.	.	.	.	8f\J)	.	8dd\J)	.	.	.
=35	=35	=35	=35	=35	=35	=35	=35	=35	=35	=35	=35
4E-\	.	.	.	2.ryy	2.ryy	4.g\	-riſ-	4.ee-\	-riſ-	2.ryy	2.ryy
8r	.	.	.	.	.	.	.	.	.	.	.
8BB-/	.	.	.	.	.	8f\	-si-	8dd\	-si-	.	.
8E-\L	.	.	.	.	.	4g\	-ma	4ee-\	-ma	.	.
8C\J	.	.	.	.	.	.	.	.	.	.	.
=36	=36	=36	=36	=36	=36	=36	=36	=36	=36	=36	=36
!	!	!LO:N:vis=00	!LO:N:vis=00	!	!	!	!	!	!	!	!
4F\	.	0.r	0.r	2.ryy	2.ryy	(8e-\L	Ma-	(8cc\L	Ma-	2.ryy	2.ryy
.	.	.	.	.	.	8d\J)	.	8a\J)	.	.	.
8r	.	.	.	.	.	(8e-\L	-ter	(8cc\L	-ter	.	.
8A\L	.	.	.	.	.	8c\J)	.	8a\J)	.	.	.
8G\	.	.	.	.	.	(8d\L	Cas-	(8b-\L	ca-	.	.
8F\J	.	.	.	.	.	8e-\J)	.	8cc\J)	.	.	.
=37	=37	=37	=37	=37	=37	=37	=37	=37	=37	=37	=37
4B-\	.	.	.	2.ryy	2.ryy	4.f\	-tiſ-	4.dd\	-stiſ-	2.ryy	2.ryy
8r	.	.	.	.	.	.	.	.	.	.	.
8F\	.	.	.	.	.	8e-\	-si-	8cc\	-si-	.	.
8B-\L	.	.	.	.	.	4f\	-ma	4dd\	-ma	.	.
8F\J	.	.	.	.	.	.	.	.	.	.	.
=38	=38	=38	=38	=38	=38	=38	=38	=38	=38	=38	=38
4BB-/	.	.	.	2.ryy	2.ryy	(8d\L	In-	(8b-\L	In-	2.ryy	2.ryy
.	.	.	.	.	.	8e-\J)	.	8cc\J)	.	.	.
4r	.	.	.	.	.	(8d\L	-vi-	(8b-\L	-vi-	.	.
.	.	.	.	.	.	8e-\J)	.	8cc\J)	.	.	.
!	!	!	!	!	!	!	!	!LO:LB:g=original	!	!	!
4BB-/	.	.	.	.	.	(8d\L	-o-	8b-\L	-o-	.	.
.	.	.	.	.	.	8e-\J)	.	8cc\J	.	.	.
=39	=39	=39	=39	=39	=39	=39	=39	=39	=39	=39	=39
4F\	.	.	.	2.ryy	2.ryy	4c/	-la-	4a\	-la-	2.ryy	2.ryy
4r	.	.	.	.	.	8c/	-ta	8a\	-ta	.	.
.	.	.	.	.	.	8d\	' In-	8b-\	In-	.	.
4FF/	7	.	.	.	.	8e-\	-te-	8cc\	-te-	.	.
.	.	.	.	.	.	8f\	-me-	8dd\	-me-	.	.
=40	=40	=40	=40	=40	=40	=40	=40	=40	=40	=40	=40
!	!	!LO:N:vis=0	!LO:N:vis=0	!	!	!	!	!	!	!	!
4BB-/	.	1.r	1.r	2.ryy	2.ryy	(8d\L	-ra-	(8b-\L	-ra-	2.ryy	2.ryy
.	.	.	.	.	.	8e-\J)	.	8cc\J)	.	.	.
4r	.	.	.	.	.	(8d\L	-ta	(8b-\L	-ta	.	.
.	.	.	.	.	.	8e-\J)	.	8cc\J)	.	.	.
!	!	!	!	!	!	!LO:TX:a:t=P:problem=niewyraźny zapis	!	!	!	!	!
4BB-/	.	.	.	.	.	4f\	.	4dd\	' o-	.	.
=41	=41	=41	=41	=41	=41	=41	=41	=41	=41	=41	=41
4E-\	6 5	.	.	2.ryy	2.ryy	8e-\	O-	8cc\	-ra	2.ryy	2.ryy
.	.	.	.	.	.	8d\	-ra	8b-\	pro	.	.
!	!	!	!	!	!	!LO:LB:g=original	!	!	!	!	!
4F\	.	.	.	.	.	4d\	pro	4.b-T\	no-	.	.
4FF/	6 4	.	.	.	.	8.c/L	no-	.	.	.	.
.	5 3	.	.	.	.	.	.	8a\	.	.	.
.	.	.	.	.	.	16B-/Jk	.	.	.	.	.
!	!	!LO:PB:g=original	!LO:LB:g=original	!	!	!	!	!	!	!	!
=42	=42	=42	=42	=42	=42	=42	=42	=42	=42	=42	=42
4BB-/	.	8r	8r	2.ryy	2.ryy	4B-/	-bis	4b-\	-bis	2.ryy	2.ryy
.	.	8dd\L	8ff\L	.	.	.	.	.	.	.	.
4B-\	.	8b-\	8dd\	.	.	4r	.	4r	.	.	.
.	.	8dd\	8ff\	.	.	.	.	.	.	.	.
4A\	6\	8a\	8cc\	.	.	4r	.	4r	.	.	.
.	.	8cc\J	8ff#X\J	.	.	.	.	.	.	.	.
!LO:LB:g=original	!	!	!	!	!	!	!	!	!	!	!
=43	=43	=43	=43	=43	=43	=43	=43	=43	=43	=43	=43
!	!	!	!	!	!	!LO:N:vis=00	!	!LO:N:vis=0	!	!	!
4G\	-	8dd\L	8gg\L	2.ryy	2.ryy	0.r	.	1.r	.	2.ryy	2.ryy
.	.	8b-\	8dd\J	.	.	.	.	.	.	.	.
8GG/L	.	8dd\	8bb-\L	.	.	.	.	.	.	.	.
8AA/J	6\	8cc\	8aa\J	.	.	.	.	.	.	.	.
4BB-/	6	8b-\	4gg\	.	.	.	.	.	.	.	.
.	.	8dd\J	.	.	.	.	.	.	.	.	.
=44	=44	=44	=44	=44	=44	=44	=44	=44	=44	=44	=44
4C/	6	4ee-\	4aa\	2.ryy	2.ryy	.	.	.	.	2.ryy	2.ryy
4D/	.	2a/	4dd\	.	.	.	.	.	.	.	.
4DD/	4	.	4ff#X\	.	.	.	.	.	.	.	.
.	#	.	.	.	.	.	.	.	.	.	.
=45	=45	=45	=45	=45	=45	=45	=45	=45	=45	=45	=45
4GG/	-	4g/	4gg\	2.ryy	2.ryy	.	.	4dd\	Ma-	2.ryy	2.ryy
4G\	.	4r	4r	.	.	.	.	(8dd\L	-ter	.	.
.	.	.	.	.	.	.	.	8ee-\J)	.	.	.
4F#X\	6	4r	4r	.	.	.	.	(8dd\L	a-	.	.
.	5	.	.	.	.	.	.	8cc\J)	.	.	.
=46	=46	=46	=46	=46	=46	=46	=46	=46	=46	=46	=46
!LO:TX:a:t=P:problem=mixed beam	!	!LO:N:vis=0	!LO:N:vis=0	!	!	!	!	!	!	!	!
8G\L	-	1.r	1.r	2.ryy	2.ryy	.	.	4.b-\	-ma-	2.ryy	2.ryy
8GG/	.	.	.	.	.	.	.	.	.	.	.
8GG/	.	.	.	.	.	.	.	.	.	.	.
8AA/	.	.	.	.	.	.	.	8a\	-bi-	.	.
8BB-/	.	.	.	.	.	.	.	4g/	-lis	.	.
8GG/J	.	.	.	.	.	.	.	.	.	.	.
!	!	!	!	!	!	!	!	!LO:LB:g=original	!	!	!
=47	=47	=47	=47	=47	=47	=47	=47	=47	=47	=47	=47
!	!	!	!	!	!	!LO:N:vis=00	!	!	!	!	!
8C/L	-	.	.	2.ryy	2.ryy	0.r	.	8ee-\	Ma-	2.ryy	2.ryy
8D/J	.	.	.	.	.	.	.	8dd\	-ter	.	.
4E-\	6	.	.	.	.	.	.	8cc\	ad-	.	.
.	.	.	.	.	.	.	.	8b-\	-mi-	.	.
4C/	6 5	.	.	.	.	.	.	(16a\LL	-ra-	.	.
.	.	.	.	.	.	.	.	16b-\JJ)	.	.	.
.	.	.	.	.	.	.	.	(16a\LL	-bi-	.	.
.	.	.	.	.	.	.	.	16g\JJ)	.	.	.
=48	=48	=48	=48	=48	=48	=48	=48	=48	=48	=48	=48
4D/	#	4r	4r	2.ryy	2.ryy	.	.	4f#X/	-lis	2.ryy	2.ryy
4r	.	4a/	4ff#X\	.	.	.	.	4a\	' Ma-	.	.
4r	.	4b-/	4gg\	.	.	.	.	4b-\	-ter	.	.
=49	=49	=49	=49	=49	=49	=49	=49	=49	=49	=49	=49
4D/	7 #	4cc\	4aa\	2.ryy	2.ryy	.	.	(4cc\	Cre-	2.ryy	2.ryy
4r	.	4a/	4ff#X\	.	.	.	.	4a\)	.	.	.
4r	.	4b-/	4gg\	.	.	.	.	4b-\	-a-	.	.
=50	=50	=50	=50	=50	=50	=50	=50	=50	=50	=50	=50
4D/	7 #	8cc\L	8aa\L	2.ryy	2.ryy	.	.	(8cc\L	-to-	2.ryy	2.ryy
.	.	8a\J	8ff#X\J	.	.	.	.	8a\J)	.	.	.
4GG/	.	4b-\	4gg\	.	.	.	.	4b-\	-ris	.	.
4r	.	4r	4r	.	.	.	.	8r	.	.	.
.	.	.	.	.	.	.	.	8b-\	et	.	.
=51	=51	=51	=51	=51	=51	=51	=51	=51	=51	=51	=51
!	!	!LO:TX:a:t=3	!	!	!	!	!	!	!	!	!
!	!	!LO:N:vis=0	!LO:N:vis=00	!	!	!LO:N:vis=00	!	!	!	!	!
2C/	6	1.r	1.r	2.ryy	2.ryy	0.r	.	8a\L	Sal-	2.ryy	2.ryy
.	.	.	.	.	.	.	.	16cc\L	.	.	.
.	.	.	.	.	.	.	.	16b-\JJ	.	.	.
.	.	.	.	.	.	.	.	8a\L	.	.	.
.	.	.	.	.	.	.	.	8b-\J	.	.	.
4C/	5	.	.	.	.	.	.	(8a\L	-va-	.	.
.	.	.	.	.	.	.	.	8g\J)	.	.	.
=52	=52	=52	=52	=52	=52	=52	=52	=52	=52	=52	=52
2D/	#	.	.	2.ryy	2.ryy	.	.	8.f#X/L	-to-	2.ryy	2.ryy
.	.	.	.	.	.	.	.	16e-/Jk	-ris	.	.
.	.	.	.	.	.	.	.	8d/	.	.	.
.	.	.	.	.	.	.	.	(16dd\LL	O-	.	.
.	.	.	.	.	.	.	.	16cc\JJ)	.	.	.
!	!	!	!	!	!	!	!	!LO:LB:g=original	!	!	!
8r	.	.	.	.	.	.	.	16b-\LL	.	.	.
.	.	.	.	.	.	.	.	16a\	.	.	.
16G\LL	-	.	.	.	.	.	.	16b-\	.	.	.
16F\JJ	.	.	.	.	.	.	.	16a\JJ	.	.	.
!LO:LB:g=original	!	!	!	!	!	!	!	!	!	!	!
=53	=53	=53	=53	=53	=53	=53	=53	=53	=53	=53	=53
16E-\LL	6	2.r	2.r	2.ryy	2.ryy	.	.	8g/	-ra	2.ryy	2.ryy
16D\	6	.	.	.	.	.	.	.	.	.	.
16E-\	6	.	.	.	.	.	.	(16cc\LL	O-	.	.
16D\JJ	6	.	.	.	.	.	.	16b-\JJ)	.	.	.
8C/L	6_ 5_	.	.	.	.	.	.	8a\	-ra	.	.
8AA/J	.	.	.	.	.	.	.	(16g\LL	pro	.	.
.	X X	.	.	.	.	.	.	16a\JJ)	.	.	.
!LO:TX:a:t=P:problem=mixed beam	!	!	!	!	!	!	!	!	!	!	!
8D\L	#	.	.	.	.	.	.	4f#X/	no-	.	.
8DD/J	.	.	.	.	.	.	.	.	.	.	.
=54	=54	=54	=54	=54	=54	=54	=54	=54	=54	=54	=54
2GG/	-	4r	4r	2.ryy	2.ryy	.	.	4g\	-bis	2.ryy	2.ryy
.	.	4b-/	8gg\L	.	.	.	.	4r	.	.	.
.	.	.	8ff#X\J	.	.	.	.	.	.	.	.
4G\	.	4b-/	(8gg\L	.	.	.	.	4r	.	.	.
.	.	.	8dd\J)	.	.	.	.	.	.	.	.
!	!	!	!LO:LB:g=original	!	!	!	!	!	!	!	!
=55	=55	=55	=55	=55	=55	=55	=55	=55	=55	=55	=55
!	!	!	!	!	!	!LO:N:vis=00	!	!LO:N:vis=00	!	!	!
2F#X\	6 5	4cc\	8aa\L	2.ryy	2.ryy	0.r	.	0.r	.	2.ryy	2.ryy
.	.	.	8ff#X\J	.	.	.	.	.	.	.	.
.	.	8a\L	4cc\	.	.	.	.	.	.	.	.
.	.	8cc\	.	.	.	.	.	.	.	.	.
4D\	7 #	8b-\	16r	.	.	.	.	.	.	.	.
.	.	.	16ee-\LL	.	.	.	.	.	.	.	.
.	.	8a\J	16dd\	.	.	.	.	.	.	.	.
.	.	.	16cc\JJ	.	.	.	.	.	.	.	.
=56	=56	=56	=56	=56	=56	=56	=56	=56	=56	=56	=56
4GG/	-	4g/	4b-/	2.ryy	2.ryy	.	.	.	.	2.ryy	2.ryy
4AA/	.	4cc\	4cc\	.	.	.	.	.	.	.	.
4BB-/	.	8b-/L	4dd\	.	.	.	.	.	.	.	.
.	.	8a/J	.	.	.	.	.	.	.	.	.
=57	=57	=57	=57	=57	=57	=57	=57	=57	=57	=57	=57
!	!	!LO:TX:a:t=P:problem=mixed beam	!	!	!	!	!	!	!	!	!
2C/	7	8g/L	8ee-\L	2.ryy	2.ryy	.	.	.	.	2.ryy	2.ryy
.	.	8f/	8dd\	.	.	.	.	.	.	.	.
.	.	8g/	8ee-\	.	.	.	.	.	.	.	.
.	.	8ee-\	8gg\	.	.	.	.	.	.	.	.
4F\	7	8dd\	8ff\	.	.	.	.	.	.	.	.
.	.	8cc\J	8ee-\J	.	.	.	.	.	.	.	.
!	!	!LO:LB:g=original	!	!	!	!	!	!	!	!	!
=58	=58	=58	=58	=58	=58	=58	=58	=58	=58	=58	=58
2BB-/	.	8b-\L	8dd\L	2.ryy	2.ryy	.	.	.	.	2.ryy	2.ryy
.	.	8a\	8cc\	.	.	.	.	.	.	.	.
.	.	8b-\	8dd\	.	.	.	.	.	.	.	.
.	.	8dd\	8ff\	.	.	.	.	.	.	.	.
4E-\	6	8cc\	8ee-\	.	.	.	.	.	.	.	.
.	5	8b-\J	8dd\J	.	.	.	.	.	.	.	.
=59	=59	=59	=59	=59	=59	=59	=59	=59	=59	=59	=59
!LO:TX:a:t=P:problem=mixed beam	!	!	!	!	!	!LO:N:vis=00	!	!LO:N:vis=00	!	!	!
8F/L	.	8a\L	4cc\	2.ryy	2.ryy	0.r	.	0.r	.	2.ryy	2.ryy
8AA/	6	8cc\	.	.	.	.	.	.	.	.	.
8AA/	.	8cc\	4r	.	.	.	.	.	.	.	.
8AA/	.	8cc\	.	.	.	.	.	.	.	.	.
8AA/	.	8a\	4r	.	.	.	.	.	.	.	.
8AA/J	.	8cc\J	.	.	.	.	.	.	.	.	.
=60	=60	=60	=60	=60	=60	=60	=60	=60	=60	=60	=60
!	!	!LO:TX:a:t=P:problem=mixed beam	!	!	!	!	!	!	!	!	!
4BB-/	.	8f/L	8r	2.ryy	2.ryy	.	.	.	.	2.ryy	2.ryy
.	.	8dd\	8ff\L	.	.	.	.	.	.	.	.
4r	.	8dd\	8ff\	.	.	.	.	.	.	.	.
.	.	8dd\	8ff\	.	.	.	.	.	.	.	.
4D/	6	8b-\	8dd\	.	.	.	.	.	.	.	.
.	.	8dd\J	8ff\J	.	.	.	.	.	.	.	.
=61	=61	=61	=61	=61	=61	=61	=61	=61	=61	=61	=61
!	!	!LO:TX:a:t=P:problem=mixed beam	!	!	!	!	!	!	!	!	!
2C/	-	8ee-\L	8gg\L	2.ryy	2.ryy	.	.	.	.	2.ryy	2.ryy
.	.	8ee-\	8gg\	.	.	.	.	.	.	.	.
.	.	8cc\	8ee-\	.	.	.	.	.	.	.	.
.	.	8ee-\	8gg\	.	.	.	.	.	.	.	.
4C/	.	8g/	8cc\	.	.	.	.	.	.	.	.
.	.	8ee-\J	8gg\J	.	.	.	.	.	.	.	.
=62	=62	=62	=62	=62	=62	=62	=62	=62	=62	=62	=62
8D\L	.	8a\L	8ff#X\L	2.ryy	2.ryy	.	.	.	.	2.ryy	2.ryy
8D\	#	8ff#X\	8aa\	.	.	.	.	.	.	.	.
8D\	.	8ff#\	8aa\	.	.	.	.	.	.	.	.
8D\	.	8ff#\	8aa\	.	.	.	.	.	.	.	.
8F#X\	6	8a\	8dd\	.	.	.	.	.	.	.	.
8F#\J	.	8dd\J	8aa\J	.	.	.	.	.	.	.	.
!LO:LB:g=original	!	!	!	!	!	!	!	!	!	!	!
=63	=63	=63	=63	=63	=63	=63	=63	=63	=63	=63	=63
!	!	!	!	!	!	!LO:N:vis=00	!	!LO:N:vis=00	!	!	!
4G\	-	4dd\	4gg\	2.ryy	2.ryy	0.r	.	0.r	.	2.ryy	2.ryy
8GG/L	.	8b-\L	8gg\L	.	.	.	.	.	.	.	.
8AA/J	6\	8cc\	8ff#X\J	.	.	.	.	.	.	.	.
4BB-/	6	8dd\	4gg\	.	.	.	.	.	.	.	.
.	.	8g\J	.	.	.	.	.	.	.	.	.
!	!	!	!LO:LB:g=original	!	!	!	!	!	!	!	!
=64	=64	=64	=64	=64	=64	=64	=64	=64	=64	=64	=64
4C/	6	4e-X/	4a/	2.ryy	2.ryy	.	.	.	.	2.ryy	2.ryy
!LO:TX:a:t=P:problem=dwie nuty pomyłkowo połączone łamaną belką, ale belka przekreślona	!	!	!	!	!	!	!	!	!	!	!
4D\	5 4	4d/	4.at/	.	.	.	.	.	.	.	.
4DD/	x 3	4f#X/	.	.	.	.	.	.	.	.	.
.	.	.	8g/	.	.	.	.	.	.	.	.
=65	=65	=65	=65	=65	=65	=65	=65	=65	=65	=65	=65
4GG/	-	4g/	8g/L	2.ryy	2.ryy	.	.	.	.	2.ryy	2.ryy
.	.	.	8g/	.	.	.	.	.	.	.	.
8r	.	8d/L	8g/	.	.	.	.	.	.	.	.
8GG/	.	8d/	8g/	.	.	.	.	.	.	.	.
!LO:TX:a:t=P:problem=mixed beam	!	!	!	!	!	!	!	!	!	!	!
8D\L	#	8d/	8f#X/	.	.	.	.	.	.	.	.
8DD/J	.	8d/J	8f#/J	.	.	.	.	.	.	.	.
=66	=66	=66	=66	=66	=66	=66	=66	=66	=66	=66	=66
2.GG/	.	2.d/	2.g/	2.ryy	2.ryy	.	.	.	.	2.ryy	2.ryy
==	==	==	==	==	==	==	==	==	==	==	==
*-	*-	*-	*-	*-	*-	*-	*-	*-	*-	*-	*-
!!!system-decoration: [g1][g2][g3]
!!!ENC: Marta Lawrence
!!!END: 2020-11-04
!!!ENC: Andrzej Gręziak
!!!END: 2020-05-04
!!!YEC: Copyright 2022 Narodowy Instytut Fryderyka Chopina (https://polishscores.org)
!!!YEM: Licence CC BY 4.0 (https://creativecommons.org/licenses/by/4.0)
